X:1
T:Title
%%score 1 { 2 | 3 }
L:1/8
Q:1/4=128
M:6/4
K:Db
V:1 treble nm="Grand Piano, Soprano"
V:2 bass nm="Choir Pad, From the Cyber Hym"
V:3 bass 
V:1
 D2 [DF]3 [DF] [DF]2 [DF]2 [DE]2 | [DF]2 [CG]3 [CG] [CG]2 [CG]4 | %2
w: By~Haldor~Lillenas * * * * *||
 [CE]2 [CG]3 [CG] [CG]2 [CG]2 [DF]2 | E2 [DA]3 [DA] [CA]2 [DA]4 | %4
w: ||
 [FA]2 [GB]2 [GB]2 [GB]2 [Bd]2 [Ac]2 | [GB]2 [FA]3 [GB] [FA]2 [DF]4 | %6
w: ||
 [DF]2 [CE]3 [CA] [Ec]2 [Ee]2 [Ec]2 | [EA]2 [=Gd]2 [Gc]2 [GB]2 A4 | [GA]2 [Fd]3 [Fd] [Fd]2 [Fd]4 | %9
w: |||
 [FA]2 [GB]3 [GB] [GB]2 [GB]4 | [GB]2 [FA]3 [FA] [FA]2 [FA]2 [DF]2 | %11
w: ||
 [CE]2 [B,D]2 [B,C]2 [B,D]2 [CE]4 | [CE]2 [DF]2 [DF]2 [DF]2 [CG]4 | [EG]2 [FA]2 [DF]2 D2 [Gd]4 | %14
w: |||
 [GB]2 [FA]3 [_F=G] [=FA]2 [_GB]2 [FA]2 | [Ad]2 [Ge]2 [Fd]2 [Ec]2 [Fd]4- | [Fd]6 z6 |] %17
w: |||
V:2
 F,2 A,3 A, A,2 A,2 G,2 | A,2 A,3 A, A,2 A,4 | A,2 A,3 A, A,2 A,2 A,2 | G,2 F,3 F, G,2 A,4 | %4
 D2 D2 D2 D2 D2 D2 | D2 D3 D D2[K:bass] A,4 | A,2 A,3 A, A,2[K:treble] C2 A,2 | C2 B,2 E2 D2 C4 | %8
 A,2 A,3 A, A,2 A,4 | D2 D3 D D2 D4 | D2 D3 D D2 D2[K:bass] A,2 | A,2 =G,2 G,2 G,2 A,4 | %12
 A,2 A,2 A,2 A,2 A,4 | A,2 A,2 A,2 A,2 B,4 | D2 D3 D D2 D2 D2 | D2[K:bass] B,2 A,2 A,2 A,4- | %16
 A,6 z6 |] %17
V:3
 D,2 D,3 D, D,2 D,2 D,2 | D,2 E,3 E, E,2 E,4 | E,2 A,,3 A,, A,,2 A,,2 B,,2 | C,2 D,3 D, E,2 F,4 | %4
 D,2 G,2 G,2 G,2 G,2 G,2 | G,2 D,3 D, D,2 D,4 | D,2 E,3 E, E,2 E,2 E,2 | E,2 E,2 E,2 E,2 A,,4 | %8
 C,2 D,3 D, D,2 D,4 | D,2 G,3 G, G,2 G,4 | G,2 D,3 D, D,2 D,2 D,2 | A,,2 E,2 E,2 E,2 A,,4 | %12
 A,,2 D,2 D,2 D,2 E,4 | A,,2 D,2 D,2 F,2 G,4 | G,2 D,3 D, D,2 D,2 D,2 | F,2 .G,4 A,,2 D,4- | %16
 D,6 z6 |] %17

